src/icons/vm-active.svg

<svg width="16" height="16" viewBox="0 0 16 16" fill="none" xmlns="http://www.w3.org/2000/svg">
<path fill-rule="evenodd" clip-rule="evenodd" d="M1.5 2H14.5L15 2.5V8.00305C14.6892 7.76964 14.3534 7.57413 14 7.41955V3H2V12H7C7 12.326 7.03187 12.6527 7.09608 12.9755C7.24266 13.7124 7.55277 14.4037 8 15H4V14H7V13H1.5L1 12.5V2.5L1.5 2Z" fill="#C5C5C5"/>
<path fill-rule="evenodd" clip-rule="evenodd" d="M9.77772 8.67412C10.4355 8.2346 11.2089 8 12 8C13.0605 8.0013 14.0771 8.42315 14.827 9.17301C15.5769 9.92287 15.9987 10.9395 16 12C16 12.7911 15.7654 13.5645 15.3259 14.2223C14.8864 14.8801 14.2616 15.3928 13.5307 15.6955C12.7998 15.9983 11.9956 16.0775 11.2196 15.9231C10.4437 15.7688 9.73098 15.3878 9.17157 14.8284C8.61216 14.269 8.2312 13.5563 8.07686 12.7804C7.92252 12.0044 8.00173 11.2002 8.30448 10.4693C8.60723 9.73836 9.11992 9.11365 9.77772 8.67412ZM11.9087 13.6637L14.295 10.4818L13.495 9.88184L11.4182 12.651L10.1165 11.6096L9.49179 12.3905L11.1963 13.7541L11.9087 13.6637Z" fill="#369432"/>
</svg>

<svg width="16" height="16" xmlns="http://www.w3.org/2000/svg"><path fill-rule="evenodd" clip-rule="evenodd" d="M1.5 2h13l.5.5v5.503a5.006 5.006 0 0 0-1-.583V3H2v9h5a5 5 0 0 0 1 3H4v-1h3v-1H1.5l-.5-.5v-10l.5-.5z"/><path fill-rule="evenodd" clip-rule="evenodd" d="M9.778 8.674a4 4 0 1 1 4.444 6.652 4 4 0 0 1-4.444-6.652zm2.13 4.99l2.387-3.182-.8-.6-2.077 2.769-1.301-1.041-.625.78 1.704 1.364.713-.09z"/></svg>
